X:73
M:C|
L:1/8
Q:200
K:C
g4e4|d2BAG2AB|c2c2d2d2|e6ee|e2fga2cc|c2def2AA|BGe2d3c|c8||

